;FLAVOR:Marlin
;TIME:3284
;Filament used: 2.71989m
;Layer height: 0.2
;MINX:84.403
;MINY:73.1
;MINZ:0.2
;MAXX:137.597
;MAXY:148.9
;MAXZ:1.6
;Generated with Cura_SteamEngine 5.4.0
M140 S60
M105
M190 S60
M104 S200
M105
M109 S200
M82 ;absolute extrusion mode
G28 ;Home
G1 Z15.0 F1200 ;Move the platform down 15mm
;Prime the extruder
G92 E0
G1 F200 E3
G92 E0
G92 E0
G92 E0
G1 F2400 E-6
;LAYER_COUNT:8
;LAYER:0
M107
M204 S2000
M205 X10 Y10
;MESH:Combined PC Board-Body001.stl
G0 F3000 X137.597 Y148.9 Z0.2
M204 S1000
M205 X8 Y8
;TYPE:WALL-OUTER
G1 F2400 E0
G1 F1500 X137.597 Y73.1 E2.52112
G1 X84.403 Y73.1 E4.29036
G1 X84.403 Y148.9 E6.81148
G1 X137.597 Y148.9 E8.58072
M204 S2000
M205 X10 Y10
G0 F3000 X137.597 Y148.7
G0 X137.197 Y148.5
M204 S1000
M205 X8 Y8
;TYPE:WALL-INNER
G1 F1500 X137.197 Y73.5 E11.07523
G1 X84.803 Y73.5 E12.81786
G1 X84.803 Y148.5 E15.31237
G1 X137.197 Y148.5 E17.055
M204 S2000
M205 X10 Y10
G0 F3000 X136.797 Y148.1
M204 S1000
M205 X8 Y8
G1 F1500 X136.797 Y73.9 E19.5229
G1 X85.203 Y73.9 E21.23892
G1 X85.203 Y148.1 E23.70683
G1 X136.797 Y148.1 E25.42285
M204 S2000
M205 X10 Y10
G0 F3000 X136.417 Y147.72
M204 S1000
M205 X8 Y8
;TYPE:SKIN
G1 F1500 X136.417 Y74.28 E27.86547
G1 X85.583 Y74.28 E29.55622
G1 X85.583 Y147.72 E31.99884
G1 X136.417 Y147.72 E33.68959
M204 S2000
M205 X10 Y10
G0 F3000 X85.859 Y147.519
M204 S1000
M205 X8 Y8
G1 F1500 X85.782 Y147.442 E33.69321
M204 S2000
M205 X10 Y10
G0 F3000 X85.782 Y146.876
M204 S1000
M205 X8 Y8
G1 F1500 X86.425 Y147.519 E33.72346
M204 S2000
M205 X10 Y10
G0 F3000 X86.991 Y147.519
M204 S1000
M205 X8 Y8
G1 F1500 X85.782 Y146.31 E33.78032
M204 S2000
M205 X10 Y10
G0 F3000 X85.782 Y145.745
M204 S1000
M205 X8 Y8
G1 F1500 X87.556 Y147.519 E33.86377
M204 S2000
M205 X10 Y10
G0 F3000 X88.122 Y147.519
M204 S1000
M205 X8 Y8
G1 F1500 X85.782 Y145.179 E33.97383
M204 S2000
M205 X10 Y10
G0 F3000 X85.782 Y144.613
M204 S1000
M205 X8 Y8
G1 F1500 X88.688 Y147.519 E34.11052
M204 S2000
M205 X10 Y10
G0 F3000 X89.253 Y147.519
M204 S1000
M205 X8 Y8
G1 F1500 X85.782 Y144.048 E34.27379
M204 S2000
M205 X10 Y10
G0 F3000 X85.782 Y143.482
M204 S1000
M205 X8 Y8
G1 F1500 X89.819 Y147.519 E34.46368
M204 S2000
M205 X10 Y10
G0 F3000 X90.385 Y147.519
M204 S1000
M205 X8 Y8
G1 F1500 X85.782 Y142.916 E34.68019
M204 S2000
M205 X10 Y10
G0 F3000 X85.782 Y142.351
M204 S1000
M205 X8 Y8
G1 F1500 X90.95 Y147.519 E34.92327
M204 S2000
M205 X10 Y10
G0 F3000 X91.516 Y147.519
M204 S1000
M205 X8 Y8
G1 F1500 X85.782 Y141.785 E35.19298
M204 S2000
M205 X10 Y10
G0 F3000 X85.782 Y141.219
M204 S1000
M205 X8 Y8
G1 F1500 X92.082 Y147.519 E35.48932
M204 S2000
M205 X10 Y10
G0 F3000 X92.647 Y147.519
M204 S1000
M205 X8 Y8
G1 F1500 X85.782 Y140.654 E35.81223
M204 S2000
M205 X10 Y10
G0 F3000 X85.782 Y140.088
M204 S1000
M205 X8 Y8
G1 F1500 X93.213 Y147.519 E36.16176
M204 S2000
M205 X10 Y10
G0 F3000 X93.779 Y147.519
M204 S1000
M205 X8 Y8
G1 F1500 X85.782 Y139.522 E36.53791
M204 S2000
M205 X10 Y10
G0 F3000 X85.782 Y138.957
M204 S1000
M205 X8 Y8
G1 F1500 X94.345 Y147.519 E36.94067
M204 S2000
M205 X10 Y10
G0 F3000 X94.91 Y147.519
M204 S1000
M205 X8 Y8
G1 F1500 X85.782 Y138.391 E37.37002
M204 S2000
M205 X10 Y10
G0 F3000 X85.782 Y137.825
M204 S1000
M205 X8 Y8
G1 F1500 X95.476 Y147.519 E37.82599
M204 S2000
M205 X10 Y10
G0 F3000 X96.042 Y147.519
M204 S1000
M205 X8 Y8
G1 F1500 X85.782 Y137.26 E38.30857
M204 S2000
M205 X10 Y10
G0 F3000 X85.782 Y136.694
M204 S1000
M205 X8 Y8
G1 F1500 X96.607 Y147.519 E38.81774
M204 S2000
M205 X10 Y10
G0 F3000 X97.173 Y147.519
M204 S1000
M205 X8 Y8
G1 F1500 X85.782 Y136.128 E39.35354
M204 S2000
M205 X10 Y10
G0 F3000 X85.782 Y135.562
M204 S1000
M205 X8 Y8
G1 F1500 X97.739 Y147.519 E39.91596
M204 S2000
M205 X10 Y10
G0 F3000 X98.304 Y147.519
M204 S1000
M205 X8 Y8
G1 F1500 X85.782 Y134.997 E40.50496
M204 S2000
M205 X10 Y10
G0 F3000 X85.782 Y134.431
M204 S1000
M205 X8 Y8
G1 F1500 X98.87 Y147.519 E41.12058
M204 S2000
M205 X10 Y10
G0 F3000 X99.436 Y147.519
M204 S1000
M205 X8 Y8
G1 F1500 X85.782 Y133.865 E41.76282
M204 S2000
M205 X10 Y10
G0 F3000 X85.782 Y133.3
M204 S1000
M205 X8 Y8
G1 F1500 X100.001 Y147.519 E42.43164
M204 S2000
M205 X10 Y10
G0 F3000 X100.567 Y147.519
M204 S1000
M205 X8 Y8
G1 F1500 X85.782 Y132.734 E43.12708
M204 S2000
M205 X10 Y10
G0 F3000 X85.782 Y132.168
M204 S1000
M205 X8 Y8
G1 F1500 X101.133 Y147.519 E43.84914
M204 S2000
M205 X10 Y10
G0 F3000 X101.698 Y147.519
M204 S1000
M205 X8 Y8
G1 F1500 X85.782 Y131.603 E44.59778
M204 S2000
M205 X10 Y10
G0 F3000 X85.782 Y131.037
M204 S1000
M205 X8 Y8
G1 F1500 X102.264 Y147.519 E45.37305
M204 S2000
M205 X10 Y10
G0 F3000 X102.83 Y147.519
M204 S1000
M205 X8 Y8
G1 F1500 X85.782 Y130.471 E46.17493
M204 S2000
M205 X10 Y10
G0 F3000 X85.782 Y129.906
M204 S1000
M205 X8 Y8
G1 F1500 X103.395 Y147.519 E47.00339
M204 S2000
M205 X10 Y10
G0 F3000 X103.961 Y147.519
M204 S1000
M205 X8 Y8
G1 F1500 X85.782 Y129.34 E47.85848
M204 S2000
M205 X10 Y10
G0 F3000 X85.782 Y128.774
M204 S1000
M205 X8 Y8
G1 F1500 X104.527 Y147.519 E48.74019
M204 S2000
M205 X10 Y10
G0 F3000 X105.093 Y147.519
M204 S1000
M205 X8 Y8
G1 F1500 X85.782 Y128.209 E49.64849
M204 S2000
M205 X10 Y10
G0 F3000 X85.782 Y127.643
M204 S1000
M205 X8 Y8
G1 F1500 X105.658 Y147.519 E50.5834
M204 S2000
M205 X10 Y10
G0 F3000 X106.224 Y147.519
M204 S1000
M205 X8 Y8
G1 F1500 X85.782 Y127.077 E51.54493
M204 S2000
M205 X10 Y10
G0 F3000 X85.782 Y126.512
M204 S1000
M205 X8 Y8
G1 F1500 X106.79 Y147.519 E52.53306
M204 S2000
M205 X10 Y10
G0 F3000 X107.355 Y147.519
M204 S1000
M205 X8 Y8
G1 F1500 X85.782 Y125.946 E53.54778
M204 S2000
M205 X10 Y10
G0 F3000 X85.782 Y125.38
M204 S1000
M205 X8 Y8
G1 F1500 X107.921 Y147.519 E54.58913
M204 S2000
M205 X10 Y10
G0 F3000 X108.487 Y147.519
M204 S1000
M205 X8 Y8
G1 F1500 X85.782 Y124.814 E55.65711
M204 S2000
M205 X10 Y10
G0 F3000 X85.782 Y124.249
M204 S1000
M205 X8 Y8
G1 F1500 X109.052 Y147.519 E56.75166
M204 S2000
M205 X10 Y10
G0 F3000 X109.618 Y147.519
M204 S1000
M205 X8 Y8
G1 F1500 X85.782 Y123.683 E57.87283
M204 S2000
M205 X10 Y10
G0 F3000 X85.782 Y123.117
M204 S1000
M205 X8 Y8
G1 F1500 X110.184 Y147.519 E59.02063
M204 S2000
M205 X10 Y10
G0 F3000 X110.749 Y147.519
M204 S1000
M205 X8 Y8
G1 F1500 X85.782 Y122.552 E60.195
M204 S2000
M205 X10 Y10
G0 F3000 X85.782 Y121.986
M204 S1000
M205 X8 Y8
G1 F1500 X111.315 Y147.519 E61.39599
M204 S2000
M205 X10 Y10
G0 F3000 X111.881 Y147.519
M204 S1000
M205 X8 Y8
G1 F1500 X85.782 Y121.42 E62.62361
M204 S2000
M205 X10 Y10
G0 F3000 X85.782 Y120.855
M204 S1000
M205 X8 Y8
G1 F1500 X112.446 Y147.519 E63.8778
M204 S2000
M205 X10 Y10
G0 F3000 X113.012 Y147.519
M204 S1000
M205 X8 Y8
G1 F1500 X85.782 Y120.289 E65.15862
M204 S2000
M205 X10 Y10
G0 F3000 X85.782 Y119.723
M204 S1000
M205 X8 Y8
G1 F1500 X113.578 Y147.519 E66.46605
M204 S2000
M205 X10 Y10
G0 F3000 X114.144 Y147.519
M204 S1000
M205 X8 Y8
G1 F1500 X85.782 Y119.158 E67.80009
M204 S2000
M205 X10 Y10
G0 F3000 X85.782 Y118.592
M204 S1000
M205 X8 Y8
G1 F1500 X114.709 Y147.519 E69.16073
M204 S2000
M205 X10 Y10
G0 F3000 X115.275 Y147.519
M204 S1000
M205 X8 Y8
G1 F1500 X85.782 Y118.026 E70.54799
M204 S2000
M205 X10 Y10
G0 F3000 X85.782 Y117.461
M204 S1000
M205 X8 Y8
G1 F1500 X115.841 Y147.519 E71.96185
M204 S2000
M205 X10 Y10
G0 F3000 X116.406 Y147.519
M204 S1000
M205 X8 Y8
G1 F1500 X85.782 Y116.895 E73.40231
M204 S2000
M205 X10 Y10
G0 F3000 X85.782 Y116.329
M204 S1000
M205 X8 Y8
G1 F1500 X116.972 Y147.519 E74.86939
M204 S2000
M205 X10 Y10
G0 F3000 X117.538 Y147.519
M204 S1000
M205 X8 Y8
G1 F1500 X85.782 Y115.763 E76.3631
M204 S2000
M205 X10 Y10
G0 F3000 X85.782 Y115.198
M204 S1000
M205 X8 Y8
G1 F1500 X118.103 Y147.519 E77.88338
M204 S2000
M205 X10 Y10
G0 F3000 X118.669 Y147.519
M204 S1000
M205 X8 Y8
G1 F1500 X85.782 Y114.632 E79.43028
M204 S2000
M205 X10 Y10
G0 F3000 X85.782 Y114.066
M204 S1000
M205 X8 Y8
G1 F1500 X119.235 Y147.519 E81.00381
M204 S2000
M205 X10 Y10
G0 F3000 X119.8 Y147.519
M204 S1000
M205 X8 Y8
G1 F1500 X85.782 Y113.501 E82.60391
M204 S2000
M205 X10 Y10
G0 F3000 X85.782 Y112.935
M204 S1000
M205 X8 Y8
G1 F1500 X120.366 Y147.519 E84.23063
M204 S2000
M205 X10 Y10
G0 F3000 X120.932 Y147.519
M204 S1000
M205 X8 Y8
G1 F1500 X85.782 Y112.369 E85.88398
M204 S2000
M205 X10 Y10
G0 F3000 X85.782 Y111.804
M204 S1000
M205 X8 Y8
G1 F1500 X121.497 Y147.519 E87.56391
M204 S2000
M205 X10 Y10
G0 F3000 X122.063 Y147.519
M204 S1000
M205 X8 Y8
G1 F1500 X85.782 Y111.238 E89.27045
M204 S2000
M205 X10 Y10
G0 F3000 X85.782 Y110.672
M204 S1000
M205 X8 Y8
G1 F1500 X122.629 Y147.519 E91.00362
M204 S2000
M205 X10 Y10
G0 F3000 X123.194 Y147.519
M204 S1000
M205 X8 Y8
G1 F1500 X85.782 Y110.107 E92.76337
M204 S2000
M205 X10 Y10
G0 F3000 X85.782 Y109.541
M204 S1000
M205 X8 Y8
G1 F1500 X123.76 Y147.519 E94.54974
M204 S2000
M205 X10 Y10
G0 F3000 X124.326 Y147.519
M204 S1000
M205 X8 Y8
G1 F1500 X85.782 Y108.975 E96.36273
M204 S2000
M205 X10 Y10
G0 F3000 X85.782 Y108.41
M204 S1000
M205 X8 Y8
G1 F1500 X124.892 Y147.519 E98.20232
M204 S2000
M205 X10 Y10
G0 F3000 X125.457 Y147.519
M204 S1000
M205 X8 Y8
G1 F1500 X85.782 Y107.844 E100.06851
M204 S2000
M205 X10 Y10
G0 F3000 X85.782 Y107.278
M204 S1000
M205 X8 Y8
G1 F1500 X126.023 Y147.519 E101.96132
M204 S2000
M205 X10 Y10
G0 F3000 X126.589 Y147.519
M204 S1000
M205 X8 Y8
G1 F1500 X85.782 Y106.713 E103.88074
M204 S2000
M205 X10 Y10
G0 F3000 X85.782 Y106.147
M204 S1000
M205 X8 Y8
G1 F1500 X127.154 Y147.519 E105.82675
M204 S2000
M205 X10 Y10
G0 F3000 X127.72 Y147.519
M204 S1000
M205 X8 Y8
G1 F1500 X85.782 Y105.581 E107.79938
M204 S2000
M205 X10 Y10
G0 F3000 X85.782 Y105.015
M204 S1000
M205 X8 Y8
G1 F1500 X128.286 Y147.519 E109.79864
M204 S2000
M205 X10 Y10
G0 F3000 X128.851 Y147.519
M204 S1000
M205 X8 Y8
G1 F1500 X85.782 Y104.45 E111.82448
M204 S2000
M205 X10 Y10
G0 F3000 X85.782 Y103.884
M204 S1000
M205 X8 Y8
G1 F1500 X129.417 Y147.519 E113.87693
M204 S2000
M205 X10 Y10
G0 F3000 X129.983 Y147.519
M204 S1000
M205 X8 Y8
G1 F1500 X85.782 Y103.318 E115.95601
M204 S2000
M205 X10 Y10
G0 F3000 X85.782 Y102.753
M204 S1000
M205 X8 Y8
G1 F1500 X130.548 Y147.519 E118.06167
M204 S2000
M205 X10 Y10
G0 F3000 X131.114 Y147.519
M204 S1000
M205 X8 Y8
G1 F1500 X85.782 Y102.187 E120.19395
M204 S2000
M205 X10 Y10
G0 F3000 X85.782 Y101.621
M204 S1000
M205 X8 Y8
G1 F1500 X131.68 Y147.519 E122.35285
M204 S2000
M205 X10 Y10
G0 F3000 X132.245 Y147.519
M204 S1000
M205 X8 Y8
G1 F1500 X85.782 Y101.056 E124.53832
M204 S2000
M205 X10 Y10
G0 F3000 X85.782 Y100.49
M204 S1000
M205 X8 Y8
G1 F1500 X132.811 Y147.519 E126.75042
M204 S2000
M205 X10 Y10
G0 F3000 X133.377 Y147.519
M204 S1000
M205 X8 Y8
G1 F1500 X85.782 Y99.924 E128.98915
M204 S2000
M205 X10 Y10
G0 F3000 X85.782 Y99.359
M204 S1000
M205 X8 Y8
G1 F1500 X133.942 Y147.519 E131.25445
M204 S2000
M205 X10 Y10
G0 F3000 X134.508 Y147.519
M204 S1000
M205 X8 Y8
G1 F1500 X85.782 Y98.793 E133.54637
M204 S2000
M205 X10 Y10
G0 F3000 X85.782 Y98.227
M204 S1000
M205 X8 Y8
G1 F1500 X135.074 Y147.519 E135.86491
M204 S2000
M205 X10 Y10
G0 F3000 X135.64 Y147.519
M204 S1000
M205 X8 Y8
G1 F1500 X85.782 Y97.662 E138.21006
M204 S2000
M205 X10 Y10
G0 F3000 X85.782 Y97.096
M204 S1000
M205 X8 Y8
G1 F1500 X136.205 Y147.519 E140.5818
M204 S2000
M205 X10 Y10
G0 F3000 X136.217 Y146.965
M204 S1000
M205 X8 Y8
G1 F1500 X85.782 Y96.53 E142.95411
M204 S2000
M205 X10 Y10
G0 F3000 X85.782 Y95.964
M204 S1000
M205 X8 Y8
G1 F1500 X136.217 Y146.399 E145.32641
M204 S2000
M205 X10 Y10
G0 F3000 X136.217 Y145.833
M204 S1000
M205 X8 Y8
G1 F1500 X85.782 Y95.399 E147.6987
M204 S2000
M205 X10 Y10
G0 F3000 X85.782 Y94.833
M204 S1000
M205 X8 Y8
G1 F1500 X136.217 Y145.268 E150.07101
M204 S2000
M205 X10 Y10
G0 F3000 X136.217 Y144.702
M204 S1000
M205 X8 Y8
G1 F1500 X85.782 Y94.267 E152.44331
M204 S2000
M205 X10 Y10
G0 F3000 X85.782 Y93.702
M204 S1000
M205 X8 Y8
G1 F1500 X136.217 Y144.136 E154.8156
M204 S2000
M205 X10 Y10
G0 F3000 X136.217 Y143.57
M204 S1000
M205 X8 Y8
G1 F1500 X85.782 Y93.136 E157.18788
M204 S2000
M205 X10 Y10
G0 F3000 X85.782 Y92.57
M204 S1000
M205 X8 Y8
G1 F1500 X136.217 Y143.005 E159.56019
M204 S2000
M205 X10 Y10
G0 F3000 X136.217 Y142.439
M204 S1000
M205 X8 Y8
G1 F1500 X85.782 Y92.005 E161.93247
M204 S2000
M205 X10 Y10
G0 F3000 X85.782 Y91.439
M204 S1000
M205 X8 Y8
G1 F1500 X136.217 Y141.873 E164.30476
M204 S2000
M205 X10 Y10
G0 F3000 X136.217 Y141.308
M204 S1000
M205 X8 Y8
G1 F1500 X85.782 Y90.873 E166.67707
M204 S2000
M205 X10 Y10
G0 F3000 X85.782 Y90.308
M204 S1000
M205 X8 Y8
G1 F1500 X136.217 Y140.742 E169.04935
M204 S2000
M205 X10 Y10
G0 F3000 X136.217 Y140.176
M204 S1000
M205 X8 Y8
G1 F1500 X85.782 Y89.742 E171.42164
M204 S2000
M205 X10 Y10
G0 F3000 X85.782 Y89.176
M204 S1000
M205 X8 Y8
G1 F1500 X136.217 Y139.611 E173.79394
M204 S2000
M205 X10 Y10
G0 F3000 X136.217 Y139.045
M204 S1000
M205 X8 Y8
G1 F1500 X85.782 Y88.611 E176.16623
M204 S2000
M205 X10 Y10
G0 F3000 X85.782 Y88.045
M204 S1000
M205 X8 Y8
G1 F1500 X136.217 Y138.479 E178.53851
M204 S2000
M205 X10 Y10
G0 F3000 X136.217 Y137.914
M204 S1000
M205 X8 Y8
G1 F1500 X85.782 Y87.479 E180.91082
M204 S2000
M205 X10 Y10
G0 F3000 X85.782 Y86.914
M204 S1000
M205 X8 Y8
G1 F1500 X136.217 Y137.348 E183.2831
M204 S2000
M205 X10 Y10
G0 F3000 X136.217 Y136.782
M204 S1000
M205 X8 Y8
G1 F1500 X85.782 Y86.348 E185.65539
M204 S2000
M205 X10 Y10
G0 F3000 X85.782 Y85.782
M204 S1000
M205 X8 Y8
G1 F1500 X136.217 Y136.217 E188.0277
M204 S2000
M205 X10 Y10
G0 F3000 X136.217 Y135.651
M204 S1000
M205 X8 Y8
G1 F1500 X85.782 Y85.216 E190.4
M204 S2000
M205 X10 Y10
G0 F3000 X85.782 Y84.651
M204 S1000
M205 X8 Y8
G1 F1500 X136.217 Y135.085 E192.77229
M204 S2000
M205 X10 Y10
G0 F3000 X136.217 Y134.519
M204 S1000
M205 X8 Y8
G1 F1500 X85.782 Y84.085 E195.14457
M204 S2000
M205 X10 Y10
G0 F3000 X85.782 Y83.519
M204 S1000
M205 X8 Y8
G1 F1500 X136.217 Y133.954 E197.51688
M204 S2000
M205 X10 Y10
G0 F3000 X136.217 Y133.388
M204 S1000
M205 X8 Y8
G1 F1500 X85.782 Y82.954 E199.88916
M204 S2000
M205 X10 Y10
G0 F3000 X85.782 Y82.388
M204 S1000
M205 X8 Y8
G1 F1500 X136.217 Y132.822 E202.26145
M204 S2000
M205 X10 Y10
G0 F3000 X136.217 Y132.257
M204 S1000
M205 X8 Y8
G1 F1500 X85.782 Y81.822 E204.63376
M204 S2000
M205 X10 Y10
G0 F3000 X85.782 Y81.257
M204 S1000
M205 X8 Y8
G1 F1500 X136.217 Y131.691 E207.00604
M204 S2000
M205 X10 Y10
G0 F3000 X136.217 Y131.125
M204 S1000
M205 X8 Y8
G1 F1500 X85.782 Y80.691 E209.37832
M204 S2000
M205 X10 Y10
G0 F3000 X85.782 Y80.125
M204 S1000
M205 X8 Y8
G1 F1500 X136.217 Y130.56 E211.75063
M204 S2000
M205 X10 Y10
G0 F3000 X136.217 Y129.994
M204 S1000
M205 X8 Y8
G1 F1500 X85.782 Y79.56 E214.12292
M204 S2000
M205 X10 Y10
G0 F3000 X85.782 Y78.994
M204 S1000
M205 X8 Y8
G1 F1500 X136.217 Y129.428 E216.4952
M204 S2000
M205 X10 Y10
G0 F3000 X136.217 Y128.863
M204 S1000
M205 X8 Y8
G1 F1500 X85.782 Y78.428 E218.86751
M204 S2000
M205 X10 Y10
G0 F3000 X85.782 Y77.863
M204 S1000
M205 X8 Y8
G1 F1500 X136.217 Y128.297 E221.23979
M204 S2000
M205 X10 Y10
G0 F3000 X136.217 Y127.731
M204 S1000
M205 X8 Y8
G1 F1500 X85.782 Y77.297 E223.61208
M204 S2000
M205 X10 Y10
G0 F3000 X85.782 Y76.731
M204 S1000
M205 X8 Y8
G1 F1500 X136.217 Y127.166 E225.98438
M204 S2000
M205 X10 Y10
G0 F3000 X136.217 Y126.6
M204 S1000
M205 X8 Y8
G1 F1500 X85.782 Y76.166 E228.35667
M204 S2000
M205 X10 Y10
G0 F3000 X85.782 Y75.6
M204 S1000
M205 X8 Y8
G1 F1500 X136.217 Y126.034 E230.72895
M204 S2000
M205 X10 Y10
G0 F3000 X136.217 Y125.469
M204 S1000
M205 X8 Y8
G1 F1500 X85.782 Y75.034 E233.10126
M204 S2000
M205 X10 Y10
G0 F3000 X85.793 Y74.48
M204 S1000
M205 X8 Y8
G1 F1500 X136.217 Y124.903 E235.47303
M204 S2000
M205 X10 Y10
G0 F3000 X136.217 Y124.337
M204 S1000
M205 X8 Y8
G1 F1500 X86.359 Y74.48 E237.81817
M204 S2000
M205 X10 Y10
G0 F3000 X86.925 Y74.48
M204 S1000
M205 X8 Y8
G1 F1500 X136.217 Y123.771 E240.13669
M204 S2000
M205 X10 Y10
G0 F3000 X136.217 Y123.206
M204 S1000
M205 X8 Y8
G1 F1500 X87.491 Y74.48 E242.42861
M204 S2000
M205 X10 Y10
G0 F3000 X88.056 Y74.48
M204 S1000
M205 X8 Y8
G1 F1500 X136.217 Y122.64 E244.69394
M204 S2000
M205 X10 Y10
G0 F3000 X136.217 Y122.074
M204 S1000
M205 X8 Y8
G1 F1500 X88.622 Y74.48 E246.93264
M204 S2000
M205 X10 Y10
G0 F3000 X89.188 Y74.48
M204 S1000
